!!!!SEGMENT: pl-kk--kk-i-10--013_anonim--aurora-lucis-rutilat.krn
!!!cenid: 16xx:1205
!!!COM: Anonim
!!!COM-rismID:
!!!CDT:
!!!CNT:
!!!OTL: Aurora lucis rutilat
!!!PDT:
!!!AGN: Sacred
!!!SMS-siglum: PL-Kk
!!!SMS-shelfmark: Kk.I.10
!!!SMS-shelfwork: 013 W
!!!SMS-variant:
!!!SMS-altvar:
!!!NIFC-rismSourceID: 1001153897
!!!NIFC-islandoraID: pl-kk:2434
!!!URL-pdf-islandora: https://repozytorium.nifc.pl/islandora/object/pl-kk%3A2434/datastream/PDF/view
!!!URL-scan: https://polish.musicsources.pl/pl/lokalizacje/galeria/rekopisy/5737 @EN{Scan on Polish Music Herritage in Open Access Website} @PL{Skany w portalu Dziedzictwo Muzyki Polskiej w otwartym dostępie}
!!!ONB-nifc: UWAGA: A (skan 0023-0024), T (0072-0073), B (0122-0123). Następny utwór: A solis ortu cardine
!!!AIN: 1 alto 1 bass 1 tenor
!!!key:
**kern	**text	**kern	**text	**kern	**text
*part3	*part3	*part2	*part2	*part1	*part1
*staff3	*staff3	*staff2	*staff2	*staff1	*staff1
*Ibass	*	*Itenor	*	*Ialto	*
*I"Bassus.	*	*I"Tenor	*	*I"Altus.	*
*I'B	*	*I'T	*	*I'A	*
*clefF4	*	*clefC4	*	*clefC3	*
*k[]	*	*k[]	*	*k[]	*
*G:	*	*G:	*	*G:	*
*M3/1	*	*M3/1	*	*M3/1	*
*MM160	*	*MM160	*	*MM160	*
=1	=1	=1	=1	=1	=1
1E	Au-	1Gn	Au-	1en	Au-
1C	-ro-	1A	-ro-	1e	-ro-
1BB	-ra	1B	-ra	1d	-ra
=2	=2	=2	=2	=2	=2
0AA	lu-	0c	lu-	0e	lu-
1GG	-cis	1B	-cis	1e	-cis
=3	=3	=3	=3	=3	=3
1.AA	ru-	1.A	ru-	1.e	ru-
*	*	*	*	*2\right	*
2AA/	-ti-	2A/	-ti-	2e\	-ti-
1E	-lat	1G#X	-lat	1e	-lat
=4	=4	=4	=4	=4	=4
1E	cae-	1E	cae-	1g	cae-
1E	-lum	1E	-lum	1e	-lum
1D	lau-	1F#X	lau-	1a	lau-
=5	=5	=5	=5	=5	=5
(1.G	-di-	0G	-di-	0d	-di-
*2\right	*	*	*	*	*
2A\)	.	.	.	.	.
1B	-bus	1F	-bus	1d	-bus
=6	=6	=6	=6	=6	=6
*	*	*custos:G	*	*	*
(1F#X	in-	1A	in-	(1d	in-
*custos:A	*	*	*	*	*
!	!	!LO:LB:g=original	!	!	!
1G)	.	2G/	.	1B)	.
.	.	2F/	.	.	.
!LO:LB:g=original	!	!	!	!	!
2.A\	.	2.E/	.	2.e\	.
4A\	-to-	4E/	-to-	4e\	-to-
!	!	!	!	!LO:LB:g=original	!
=7	=7	=7	=7	=7	=7
0.D	-nat	0.F#X	-nat	0.d	-nat
=8	=8	=8	=8	=8	=8
1D	Mun-	1A	Mun-	1d	mun-
1E	-dus	1G	-dus	1B	-dus
1F#X	e-	(2F#X/	e-	1d	e-
.	.	2E/)	.	.	.
=9	=9	=9	=9	=9	=9
0G	-xul-	0D	-xul-	0g	-xul-
1E	-tans	1E	-tans	1B	-tans
=10	=10	=10	=10	=10	=10
1.D	iu-	1.F#X	gau-	1.d	iu-
2D/	-bi-	2F#/	-di-	2d\	-bi-
1D	-lat	1F#	-js	1d	-lat
=11	=11	=11	=11	=11	=11
1D	ge-	1d	ge-	1d	ge-
1.C#X	-mens	1e	-mens	1e	-mens
.	.	1A	in-	1e	in-
2C#/	in-	.	.	.	.
=12	=12	=12	=12	=12	=12
1D	-fer-	0A	-fer-	0d	-fer-
1BB	-nus	.	.	.	.
*	*	*custos:A	*	*	*
(>1GG	v-	1B	-nus	1d	-nus
!	!	!LO:LB:g=original	!	!	!
=13	=13	=13	=13	=13	=13
1.AA)	.	1.A	vl-	1.d	vl-
*custos:D	*	*	*	*	*
!	!	!	!	!LO:TX:b:t=P:problem=# below	!
2AA/	-lu-	2A/	-lu-	2c#X/	-lu-
!LO:LB:g=original	!	!	!	!	!
1D	-lat	1A	-lat	1d	-lat
=14	=14	=14	=14	=14	=14
1E	ge-	1G	ge-	1g	ge-
1.D#X	-mens	1B	-mens	1.f#X	-mens
.	.	1B	in-	.	.
2D#/	in-	.	.	2f#\	in-
=15	=15	=15	=15	=15	=15
1.E	-fer-	0B	-fer-	0e	-fer-
2D/	.	.	.	.	.
1C	.	1c	-nus	1e	-n(us)
!	!	!	!	!LO:LB:g=original	!
=16	=16	=16	=16	=16	=16
1AA	-nus	1c	vl-	0e	vl-
1.BB	vl-	1.B	.	.	.
.	.	.	.	1d#X	-lu-
*	*	*2\right	*	*	*
2BB/	-lu-	2B\	-lu-	.	.
=17	=17	=17	=17	=17	=17
0.E	-lat	0.B	-lat	0.e	-lat
=18||	=18||	=18||	=18||	=18||	=18||
1E	cum	1G#X	cum	[1e	cum
1C	Rex	1A	Rex	1e]	.
1BB	il-	1B	il-	1d	Rex
=19	=19	=19	=19	=19	=19
0AA	-le	0c	-le	1e	il-
.	.	.	.	1e	-le
*	*	*custos:A	*	*	*
1GG#X	for-	1B	for-	1e	for-
!	!	!LO:PB:g=original	!	!	!
=20	=20	=20	=20	=20	=20
1.AA	-tiſ-	1.A	-tiſ-	1.e	-tiſ-
2AA/	-si-	2A/	-si-	2e\	-si-
*custos:E	*	*	*	*	*
1E	-mus	1G#X	-mus	1e	-mus
!LO:LB:g=original	!	!	!	!	!
=21	=21	=21	=21	=21	=21
1E	mor-	1E	mor-	1g	Mor-
1E	-tis	1E	-tis	1e	-tis
1D	con-	1F#X	con-	1a	con-
=22	=22	=22	=22	=22	=22
1.G	-fra-	0G	-fra-	0d	-fra-
2A\	.	.	.	.	.
1B	.	1F#X	-ctis	1d	-ctis
=23	=23	=23	=23	=23	=23
1F#X	-ctis	1A	Vi-	(1d	Vi-
1G	.	2G/	.	1B)	.
.	.	2F/	.	.	.
!	!	!	!	!LO:LB:g=original	!
2.A\	Vi-	2.E/	.	2.e\	.
4A\	-ri-	4E/	-ri-	4e\	-ri-
=24	=24	=24	=24	=24	=24
0.D	-bus	0.F#X	-bus	0.d	-bus
=25	=25	=25	=25	=25	=25
1D	pe-	1A	pe-	1d	pe-
1E	-de	1G	-de	1B	-de
1F#X	con-	(2F#X/	con-	1d	con-
.	.	2E/)	.	.	.
=26	=26	=26	=26	=26	=26
0G	-cul-	0D	-cul-	0g	-cul-
1E	-cans	1E	-cans	1B	-cans
=27	=27	=27	=27	=27	=27
1.D	tar-	1.F#X	tar-	1.d	tar-
2D/	-ta-	2F#/	-ta-	2d\	-ta-
*custos:D	*	*	*	*	*
1D	-ra	1F#	-ra	1d	-ra
!LO:LB:g=original	!	!LO:LB:g=original	!	!	!
=28	=28	=28	=28	=28	=28
1D	Sol-	1d	Sol-	1d	Sol-
1.C#X	-uit	1e	-uit	1e	-uit
.	.	1A	à	1e	à
2C#/	à	.	.	.	.
=29	=29	=29	=29	=29	=29
1D	poe-	0A	poe-	0d	poe-
1BB	-na	.	.	.	.
1GG	à	1B	-na	1d	-na
=30	=30	=30	=30	=30	=30
1.AA	poe-	1.A	mi-	1.d	mi-
2AA/	-na	2A/	-ſe-	2c#X/	-ſe-
(1D	Sol-	1A	-ros	1d	-ros
=31	=31	=31	=31	=31	=31
1E)	.	1G	Sol-	1g	ſol-
!	!	!	!	!LO:TX:a:t=P:problem=# above	!
1.D#X	-uit	1B	-uit	1.f#X	-uit
.	.	1B	à	.	.
2D#/	à	.	.	2f#\	à
!	!	!	!	!LO:LB:g=original	!
=32	=32	=32	=32	=32	=32
(1.E	poe-	0B	poe-	0e	poe-
2D/)	.	.	.	.	.
1C	-na	1c	-na	1e	-na
=33	=33	=33	=33	=33	=33
1AA	mi-	1c	mi-	0e	mi-
(>1.BB	-se-	1.B	.	.	.
.	.	.	.	1d#X	-ſe-
2BB/)	.	2B\	-se-	.	.
=34	=34	=34	=34	=34	=34
!LO:TX:a:t=P:problem=podwójna kreska taktowa	!	!	!	!	!
0.E	-ros	0.B	-ros	0.e	-ros
!LO:PB:g=original	!	!	!	!	!
=35	=35	=35	=35	=35	=35
1E	Il-	1G	Il-	1e	Il-
1E	-le	1G	-le	1g	-le
*	*	*custos:B	*	*	*
1D#X	qui	1B	qui	1f#X	qui
!	!	!LO:LB:g=original	!	!	!
=36	=36	=36	=36	=36	=36
0E	clau-	0B	clau-	0e	clau-
1G	-sus	1B	-sus	1e	-sus
=37	=37	=37	=37	=37	=37
1.F#X	la-	1.c#X	La-	1.f#X	la-
2F#\	-pi-	2c#\	-pi-	2f#\	-pi-
1BB	-de	1B	-de	1g#X	-de
=38	=38	=38	=38	=38	=38
!	!	!	!	!LO:N:acc=-	!
1GG	cu-	1B	cu-	1gn	cu-
1AA	-sto-	1A	-ſto-	1e	-sto-
1BB	-di-	1G	-di-	1d	-di-
=39	=39	=39	=39	=39	=39
(1C	-tur	0c	-tur	(1e	-tur
1D	.	.	.	1f#X)	.
1E)	.	1B	Sub	1g	ſub
=40	=40	=40	=40	=40	=40
*	*	*	*	*custos:d	*
1C	Sub	1c	.	1e	mi-
!	!	!	!	!LO:LB:g=original	!
1.D	mi-	1.A	mi-	1.d	.
2D/	-li-	2A/	-li-	2d\	-[li]-
=41	=41	=41	=41	=41	=41
0.GG	-te	0.B	-te	0.d	-te
=42	=42	=42	=42	=42	=42
*custos:e	*	*	*	*	*
1G	tri-	1B	tri-	1d	tri-
!LO:LB:g=original	!	!	!	!	!
1E	-um-	1B	-um-	1e	-um-
1D	-phans	1d	-phans	1f#X	-phans
=43	=43	=43	=43	=43	=43
(1G	pom-	0d	pom-	0g	pom-
1E)	.	.	.	.	.
*	*	*custos:A	*	*	*
1A	-pa	1B	-pa	1e	-pa
!	!	!LO:LB:g=original	!	!	!
=44	=44	=44	=44	=44	=44
1.D	No-	1.A	No-	1.f#X	No-
2D/	-bi-	2A/	-bi-	2f#\	-bi-
1D	-li	1A	-li	1f#	-li
=45	=45	=45	=45	=45	=45
1BB	Vi-	1B	Vi-	1f#X	Vi-
1AA	-ctor	1c	-ctor	1f#	-ctor
1GG	Tur-	1d	fu-	1g	Fu-
=46	=46	=46	=46	=46	=46
(1C	-git	0.c	-git	(<1e	-git
1D)	.	.	.	1f#X)	.
1E	de	.	.	1g	de
=47	=47	=47	=47	=47	=47
1C	fu-	1A	de	0e	fu-
1.BB	.	1.B	fu-	.	.
.	.	.	.	1d#X	-ne-
2BB/	-ne-	2B\	-ne-	.	.
=48	=48	=48	=48	=48	=48
!LO:TX:a:t=P:problem=podwójna kreska taktowa	!	!	!	!	!
0.E	-re.	0.B	-re.	0.e	-re.
!LO:LB:g=original	!	!	!	!LO:PB:g=original	!
=49	=49	=49	=49	=49	=49
!LO:TX:t=P:problem=w tt. 49-62 zbędna powtórka w A	!	!LO:TX:t=P:problem=w tt. 49-62 zbędna powtórka w A	!	!LO:TX:t=P:problem=zbędna powtórka tt.35-48	!
0.ryy	.	0.ryy	.	1e	Il-
.	.	.	.	1g	-le
.	.	.	.	1f#X	qui
=50	=50	=50	=50	=50	=50
0.ryy	.	0.ryy	.	0e	clau-
.	.	.	.	1e	-sus
=51	=51	=51	=51	=51	=51
0.ryy	.	0.ryy	.	1.f#X	la-
.	.	.	.	2f#\	-pi-
.	.	.	.	1g#X	-de
=52	=52	=52	=52	=52	=52
!	!	!	!	!LO:N:acc=-	!
0.ryy	.	0.ryy	.	1gn	cu-
.	.	.	.	1e	-sto-
.	.	.	.	1d	-di-
=53	=53	=53	=53	=53	=53
0.ryy	.	0.ryy	.	(1e	-tur
.	.	.	.	1f#X)	.
.	.	.	.	1g	Sub
=54	=54	=54	=54	=54	=54
0.ryy	.	0.ryy	.	1e	mi-
.	.	.	.	1.d	.
.	.	.	.	2d\	-li-
=55	=55	=55	=55	=55	=55
0.ryy	.	0.ryy	.	0.d	-te
=56	=56	=56	=56	=56	=56
0.ryy	.	0.ryy	.	1d	tri-
.	.	.	.	1e	-um-
*	*	*	*	*custos:g	*
!	!	!	!	!LO:TX:a:t=P:problem=# above	!
.	.	.	.	1f#X	-phans
!	!	!	!	!LO:LB:g=original	!
=57	=57	=57	=57	=57	=57
0.ryy	.	0.ryy	.	0g	pom-
.	.	.	.	1e	-pa
=58	=58	=58	=58	=58	=58
0.ryy	.	0.ryy	.	1.f#X	No-
.	.	.	.	2f#\	-bi-
.	.	.	.	1f#	-li
=59	=59	=59	=59	=59	=59
0.ryy	.	0.ryy	.	1f#X	Vi-
.	.	.	.	1f#	-ctor
.	.	.	.	1g	Fu-
=60	=60	=60	=60	=60	=60
0.ryy	.	0.ryy	.	(<1e	-git
.	.	.	.	1f#X)	.
.	.	.	.	1g	de
=61	=61	=61	=61	=61	=61
0.ryy	.	0.ryy	.	0e	fu-
.	.	.	.	1d#X	-ne-
=62	=62	=62	=62	=62	=62
!	!	!	!	!LO:TX:b:t=vi=	!
0.ryy	.	0.ryy	.	0.e	-re
=63	=63	=63	=63	=63	=63
!	!	!	!	!LO:TX:b:t=de.	!
1E	So-	1G	So-	1e	So-
1E	-lu-	1G	-lu-	1g	-lu-
1D#X	-tis	1B	-tis	1f#X	-tis
=64	=64	=64	=64	=64	=64
0E	iam	0B	iam	0e	iam
1G	ge-	1B	ge-	1e	ge-
=65	=65	=65	=65	=65	=65
1.F#X	-mi-	1.c#X	-mi-	1.f#X	-mi-
2F#\	-ni-	2c#\	-ti-	2f#\	-ti-
1BB	-bus	1B	-bus	1g#X	-bus
!	!	!LO:LB:g=original	!	!	!
=66	=66	=66	=66	=66	=66
!	!	!	!	!LO:N:acc=-	!
1GG	ex	1B	ex	1gn	ex
1AA	in-	1A	in-	1e	in-
1BB	-fer-	1G	-fer-	1d	-fer-
=67	=67	=67	=67	=67	=67
(1C	-ni	0c	-ni	(<1e	-ni[s]
1D)	.	.	.	1f#X)	.
1E	do-	1B	do-	1g	.
=68	=68	=68	=68	=68	=68
*	*	*	*	*custos:d	*
1C	-le-	1c	.	1e	do-
!	!	!	!	!LO:LB:g=original	!
1.D	.	1.A	-lo-	1.d	-lo-
2D/	-ri-	2A/	-ri-	2d\	-ri-
=69	=69	=69	=69	=69	=69
0.GG	-bus	0.B	-bus	0.d	-bus
!LO:LB:g=original	!	!	!	!	!
=70	=70	=70	=70	=70	=70
1G	qui-	1B	qui-	1d	qui-
1E	-a	1B	-a	1e	-a
1D	sur-	1d	Sur-	1f#X	Sur-
=71	=71	=71	=71	=71	=71
(1G	-re-	0d	-re-	0g	-re-
1E)	.	.	.	.	.
!	!	!LO:SIC:v:s=1c	!	!	!
1A	-xit	1B	-xit	1e	-xit
=72	=72	=72	=72	=72	=72
1.D	D(o-	1.A	D(o-	1.f#X	D(o-
2D/	-mi)-	2A/	-mi)-	2f#\	-mi)-
1D	-nus	1A	-nus	1f#	-nus
=73	=73	=73	=73	=73	=73
1BB	res-	1B	res-	1f#X	re-
1AA	-plen-	1c	-plen-	1f#	-splen-
1GG	-dens	1d	-dens	1g	-dens
=74	=74	=74	=74	=74	=74
(1C	cla-	0.c	cla-	(1e	cla-
*	*	*	*	*custos:g	*
1D)	.	.	.	1f#X)	.
!	!	!	!	!LO:LB:g=original	!
1E	-mat	.	.	1g	-mat
!	!	!LO:LB:g=original	!	!	!
=75	=75	=75	=75	=75	=75
1C	An-	1A	-mat	0e	An-
1.BB	.	1.B	An-	.	.
.	.	.	.	1d#X	-ge-
2BB/	-ge-	2B\	-ge-	.	.
=76	=76	=76	=76	=76	=76
!LO:TX:a:t=P:problem=pojedyncza kreska taktowa	!	!	!	!LO:TX:a:t=re-	!
0.E	-lus	0.B	-lus	0.e	-lus
!LO:LB:g=original	!	!	!	!	!
=77||	=77||	=77||	=77||	=77||	=77||
!	!	!	!	!LO:TX:a:t=P:problem=dwa takty zapisane dwukrotnie na jednej i na drugiej stronie, jako re- i -tro	!
!	!	!	!	!LO:TX:a:t=tro.	!
1E	Quae	1G	Quae	1e	Quae
1AA	Su-	1A	Su-	1e	Su-
1GG#X	-mus	1B	-mus	1e	-mus
=78	=78	=78	=78	=78	=78
0AA	au-	0c	au-	0e	au-
*	*	*	*	*custos:e	*
1E	-ctor	1B	-ctor	1e	-ctor
!	!	!	!	!LO:LB:g=original	!
=79	=79	=79	=79	=79	=79
1.BB	om-	1.B	om-	1.e	om-
2BB/	-ni-	2B\	-ni-	2d#X\	-ni-
1E	-um	1B	-um	1e	-um
=80	=80	=80	=80	=80	=80
1C	in	1c	in	1e	In
1C	hoc	1c	hoc	1e	hoc
1BB	Pas-	1d	Pas-	1d	Pa-
=81	=81	=81	=81	=81	=81
0AA	-cha-	0A	-cha-	(<1e	-scha-
.	.	.	.	1f#X)	.
1GG	-li	1B	-li	1g	-li
=82	=82	=82	=82	=82	=82
1.D	gau-	1.d	gau-	1.f#X	gau-
2D/	-di-	2d\	-di-	2f#\	-di-
1D	-o	1d	-o	1f#	-o
!	!	!LO:LB:g=original	!	!	!
=83	=83	=83	=83	=83	=83
1C#X	ab	1e	ab	1e	ab
!	!	!	!	!LO:N:acc=-	!
(1D	om-	1c	om-	1fn	om-
2.E\	.	1B	-ni	1e	-ni
*custos:F	*	*	*	*	*
4E\)	-ni	.	.	.	.
!LO:LB:g=original	!	!	!	!	!
=84	=84	=84	=84	=84	=84
0F	mor-	0A	Mor-	(1d	Mor-
.	.	.	.	1e)	.
1D	-tis	1d	-tis	1f	-tis
=85	=85	=85	=85	=85	=85
1.E	im-	1.B	im-	1.e	im-
2E\	-pe-	2B\	-pe-	2e\	-pe-
*	*	*	*	*custos:e	*
1E	-tu	1B	-tu	1e	-tu
!	!	!	!	!LO:LB:g=original	!
=86	=86	=86	=86	=86	=86
1C#X	tu-	1A	Tu-	1e	tu-
1D	-um	1A	-um	1f	-um
1BB	de-	1G#X	de-	1d	de-
=87	=87	=87	=87	=87	=87
*	*	*	*	*lig	*
0AA	-fen-	0A	-fen-	1c	-fen-
.	.	.	.	1d	.
*	*	*	*	*Xlig	*
1AA	-de	1A	-de	1e	-de
=88	=88	=88	=88	=88	=88
*	*	*	*ij	*	*
1G#X	Tu-	1B	Tu-	1e	Tu-
1A	-um	1A	-um	1e	-um
1F#X	de-	1d	de-	1d	de-
=89	=89	=89	=89	=89	=89
0E	-fen-	0B	-fen-	0e	-fen-
1AA	-de	1c	-de	1e	-de
*	*	*	*Xij	*	*
=90	=90	=90	=90	=90	=90
0BB	po-	0B	po-	0e	po-
!	!	!	!	!LO:SIC:v:s=1d#	!
1BB	-pu-	1B	-pu-	1d	-pu-
=91	=91	=91-	=91	=91	=91
!	!	!	!	!LO:TX:a:t=P:problem=podwójna kreska taktowa	!
0.E	-lum.	0.B	-lum	0.e	-lum.
!LO:LB:g=original	!	!LO:PB:g=original	!	!	!
=92	=92	=92	=92	=92	=92
1E	Ut	1G#X	Ut	1e	Ut
1C	Sis	1A	Sis	1e	Sis
1BB	pe-	1B	pe-	1d	pe-
=93	=93	=93	=93	=93	=93
0AA	-ren-	0c	-ren-	0e	-ren-
1GG#X	-ne	1B	-ne	1e	-ne
!	!	!	!	!LO:LB:g=original	!
=94	=94	=94	=94	=94	=94
1.AA	men-	1.A	men-	1.e	Men-
2AA/	-ti-	2A/	-ti-	2e\	-ti-
1E	-bus	1G#X	-bus	1e	-bus
=95	=95	=95	=95	=95	=95
1E	Pas-	1E	Pas-	1g	Pas-
1E	-cha-	1E	-cha-	1e	-cha-
1D	-le	1F#X	-le	1a	-le
=96	=96	=96	=96	=96	=96
(1.G	JE-	0G	IE-	0d	IE-
2A\)	.	.	.	.	.
1B	.	1F#X	-SV	1d	-SU
=97	=97	=97	=97	=97	=97
1F#X,	-SV	(<1A	gau-	(<1d	gau-
(1G	gau-	2G/	.	1B)	.
.	.	2F/)	.	.	.
2.A\)	.	2.E/	.	2.e\	.
4A\	-di-	4E/	-di-	4e\	-di-
=98	=98	=98	=98	=98	=98
*custos:D	*	*custos:A	*	*	*
0.D	-um	0.F#X	-um	0.d	-um
!LO:PB:g=original	!	!LO:LB:g=original	!	!	!
=99-	=99	=99	=99	=99	=99
1D	à	1A	à	1d	à
1E	mor-	1G	mor-	1B	mor-
1F#X	-te	2F#X/	-te	1d	-te
.	.	2E/	.	.	.
=100	=100	=100	=100	=100	=100
0G	di-	0D	di-	0g	di-
1E	-ra	1E	-va	1B	-va
=101	=101	=101	=101	=101	=101
1.D	cri-	1.F#X	cri-	1.d	cri-
2D/	-mi-	2F#/	-mi-	2d\	-mi-
*	*	*	*	*custos:d	*
1D	-num	1F#	-num	1d	-num
!	!	!	!	!LO:LB:g=original	!
=102	=102	=102	=102	=102	=102
1D	Vi-	1d	Vi-	1d	Vi-
1.C#X	-tae	1e	-tae	1e	-tae
.	.	1A	ve-	1e	ve-
2C#/	ren-	.	.	.	.
=103	=103	=103	=103	=103	=103
(1D	-a-	0A	-na-	0d	-na-
1BB)	.	.	.	.	.
1GG	-tos	1B	-tus	1d	-tus
=104	=104	=104	=104	=104	=104
1.AA	li-	1.A	li-	1.d	li-
2AA/	-be-	2A/	-be-	2c#X/	-be-
1D	-ra	1A	-ra	1d	-ra
=105	=105	=105	=105	=105	=105
1E	Vi-	1G	Vi-	1g	Vi-
1.D#X	-tae	1B	-tae	1.f#X	-tae
*	*	*custos:B	*	*	*
.	.	1B	re-	.	.
*custos:E	*	*	*	*	*
2D#/	re-	.	.	2f#\	re-
!LO:LB:g=original	!	!LO:LB:g=original	!	!	!
=106	=106	=106-	=106	=106	=106
1.E	-na-	0B	-na-	0e	-na-
2D/	.	.	.	.	.
1C	.	1c	-tus	1e	-tus
=107	=107	=107	=107	=107	=107
1AA	-tos	1c	li-	0e	li-
1.BB	li-	1.B	.	.	.
.	.	.	.	1d#X	-be-
2BB/	-be-	2B\	-be-	.	.
=108	=108	=108	=108	=108	=108
!	!	!LO:TX:a:t=P:problem=podwójna kreska taktowa	!	!	!
0.E	-ra	0.B	-ra.	0.e	-ra.
=109	=109	=109	=109	=109	=109
1E	Glo-	1G	Glo-	1e	Glo-
1E	-ri-	1G	-ri-	1g	-ri-
!	!	!	!	!LO:TX:a:t=P:problem=# above	!
1D#X	-a	1B	-a	1f#X	-a
=110	=110	=110	=110	=110	=110
0E	Ti-	0B	Fi-	0e	Fi-
*	*	*	*	*custos:f	*
1G	-bi	1B	-li	1e	-li
!	!	!	!	!LO:LB:g=original	!
=111	=111	=111	=111	=111	=111
1.F#X	D(o-	1.c#X	D(o-	1.f#X	D(o-
2F#\	-mi)-	2c#\	-mi)-	2f#\	-mi)-
1BB	-ne	1B	-ne	1g#X	-ne
=112	=112	=112	=112	=112	=112
!	!	!	!	!LO:N:acc=-	!
1GG	quae	1B	quae	1gn	quae
1AA	Sur-	1A	Sur-	1e	Sur-
1BB	-re-	1G	-re-	1d	-re-
=113	=113	=113	=113	=113	=113
1C	-xi-	0c	-xi-	1e	-xi-
1D	-sti	.	.	1f#X	-ſti
*custos:C	*	*custos:c	*	*	*
1E	à	1B	-ſti	1g	à
!LO:LB:g=original	!	!LO:LB:g=original	!	!	!
=114	=114	=114-	=114	=114	=114
1C	mor-	2c\	à	1e	mor-
.	.	2c\	Mor-	.	.
0D	-tu-	0A	-tu-	0d	-tu-
=115	=115	=115	=115	=115	=115
0.GG	-is	0.B	-is	0.d	-is
=116	=116	=116	=116	=116	=116
1G	cum	1B	cum	1d	cum
1E	Pa-	1B	P(a-	1e	P(a-
1D	-tre	2d\	-t)re	2.f#X\	-t)re
.	.	2d\	et	.	.
.	.	.	.	4f#\	&
=117	=117	=117	=117	=117	=117
1G	et	0d	S(an)-	0g	San-
1E	San-	.	.	.	.
*	*	*	*	*custos:f	*
1A	-cto	1A	-cto	1e	-[cto]
!	!	!	!	!LO:PB:g=original	!
=118	=118	=118	=118	=118	=118
1.D	Spi-	1.A	Spi-	1.f#X	Spi-
2D/	-ri-	2A/	-ri-	2f#\	-ri-
1D	-tu	1A	-tu	1f#	-tu
=119	=119	=119	=119	=119	=119
!	!	!	!	!LO:SIC:v:s=1f#	!
1BB	in	1B	in	1f	in
!	!	!	!	!LO:SIC:v:s=1f#	!
1AA	Sem-	1c	Sem-	1g	Sem-
!	!	!	!	!LO:SIC:v:s=1g	!
1GG	-pi-	1d	-pi-	1a	-pi-
=120	=120	=120	=120	=120	=120
(1C	-ter-	0c	-ter-	(1e	-ter-
1D)	.	.	.	1f#X)	.
*	*	*custos:A	*	*	*
1E	-na	1B	-na	1g	-na
!LO:LB:g=original	!	!LO:LB:g=original	!	!	!
=121-	=121	=121	=121	=121	=121
*	*	*col	*	*	*
1C	ſae-	1A	ſae-	0e	Sae-
1.BB	.	0B	-cu-	.	.
.	.	.	.	1d#X	-cu-
2BB/	-cu-	.	.	.	.
*	*	*Xcol	*	*	*
=122	=122	=122	=122	=122	=122
0.E	-la	0.B	-la	0.e	-la
=123	=123	=123	=123	=123	=123
*M2/1	*	*M2/1	*	*M2/1	*
*met(C.)	*	*met(C.)	*	*met(C.)	*
4E\	a-	2B\	a-	4g\	a-
!	!	!	!	!LO:TX:a:t=P:problem=# above	!
4D\	.	.	.	4f#X\	.
4C/	.	4c\	.	4e\	.
4BB/	.	4G#X/	.	4d\	.
=	=	=	=	=	=
2AA/	.	4E/	.	2.e\	.
.	.	2c\	.	.	.
2E\	.	.	.	.	.
!	!	!	!	!LO:SIC:v:s=8f\L	!
.	.	4B\	.	8f\L	.
.	.	.	.	8g\J	.
=124	=124	=124	=124	=124-	=124
0AA	.	2.c\	.	1e	.
.	.	4B\	.	.	.
=-	=	=	=	=	=
.	.	1A	.	2.e\	.
.	.	.	.	4f#X\	.
=125-	=125	=125-	=125	=125-	=125
0El;<	-men	0G#Xl;;	-men	0g#Xl;<	-men.
==	==	==	==	==	==
*-	*-	*-	*-	*-	*-
!!!system-decoration: [(s1,s2,s3)]
!!!RDF**kern: > = above
!!!RDF**kern: < = below
!!!RDF**kern: l = terminal long
!!!ENC: Marta Lawrence
!!!END: 2021-07-08
!!!ENC: Krzysztof Stępień
!!!END: 2021-06-25
